X: 650
P: Longways for as many as will
M: C|
L: 1/8
K: C
c |\
e2 (fe/f/) g3 g | aa ag/f/ gg gf/g/ |\
aa ag/f/ ga gf | e2 d2 c3 |]\
c |\
d2 e2 d3 c | de fe de dc |\
defd gfed | c>d d2 c3 |]\
g |\
ed ec d/c/d/e/ dg | edec d3 |]\
d |\
fedc d/c/B/A/ Gg | cd d2 c3 |]

